build/system/LightModeSolid.svg

<svg xmlns="http://www.w3.org/2000/svg" fill="none" viewBox="0 0 24 24" focusable="false"><path d="M0 0H24V24H0z"/><path fill="#74767B" fill-rule="evenodd" d="M12.0002 2.00037C12.3592 2.00037 12.6502 2.29139 12.6502 2.65038L12.6502 5.09765C12.6501 5.45663 12.3591 5.74764 12.0001 5.74763C11.6412 5.74762 11.3502 5.45661 11.3502 5.09762L11.3502 2.65035C11.3502 2.29137 11.6412 2.00036 12.0002 2.00037ZM4.92936 4.92894C5.1832 4.67511 5.59476 4.67512 5.8486 4.92896L7.57904 6.65948C7.70595 6.7864 7.76941 6.95274 7.76941 7.11909C7.76941 7.28544 7.70594 7.4518 7.57902 7.57872C7.32517 7.83255 6.91361 7.83254 6.65978 7.5787L4.92934 5.84818C4.80242 5.72126 4.73897 5.55492 4.73897 5.38857C4.73897 5.22222 4.80243 5.05586 4.92936 4.92894ZM19.071 4.92935C19.1979 5.05627 19.2614 5.22261 19.2614 5.38896C19.2614 5.55531 19.1979 5.72167 19.071 5.84859L17.3405 7.57903C17.0866 7.83286 16.675 7.83285 16.4212 7.57901C16.2943 7.45209 16.2308 7.28574 16.2308 7.1194C16.2308 6.95305 16.2943 6.78669 16.4212 6.65977L18.1517 4.92933C18.4056 4.67549 18.8172 4.6755 19.071 4.92935ZM17.0001 12C17.0001 14.7614 14.7615 17 12.0001 17C9.23867 17 7.0001 14.7614 7.0001 12C7.0001 9.23855 9.23867 6.99998 12.0001 6.99998C14.7615 6.99998 17.0001 9.23855 17.0001 12ZM2.00049 11.9999C2.0005 11.6409 2.29152 11.3499 2.6505 11.3499L5.09777 11.3499C5.45675 11.3499 5.74775 11.6409 5.74775 11.9999C5.74775 12.3589 5.45673 12.6499 5.09774 12.6499L2.65047 12.6499C2.29149 12.6499 2.00049 12.3588 2.00049 11.9999ZM21.9997 12C21.9997 12.359 21.7087 12.65 21.3497 12.65L18.9024 12.6499C18.5434 12.6499 18.2524 12.3589 18.2524 11.9999C18.2524 11.6409 18.5435 11.3499 18.9025 11.3499L21.3497 11.35C21.7087 11.35 21.9997 11.641 21.9997 12ZM19.0708 19.0706C18.817 19.3245 18.4054 19.3244 18.1516 19.0706L16.4212 17.3401C16.2943 17.2132 16.2308 17.0468 16.2308 16.8805C16.2308 16.7141 16.2943 16.5478 16.4212 16.4208C16.675 16.167 17.0866 16.167 17.3404 16.4209L19.0709 18.1514C19.1978 18.2783 19.2612 18.4446 19.2612 18.611C19.2612 18.7773 19.1978 18.9437 19.0708 19.0706ZM4.92931 19.0708C4.80239 18.9439 4.73894 18.7776 4.73894 18.6112C4.73894 18.4449 4.8024 18.2785 4.92933 18.1516L6.65984 16.4212C6.91369 16.1673 7.32525 16.1673 7.57908 16.4212C7.706 16.5481 7.76945 16.7144 7.76945 16.8808C7.76945 17.0471 7.70599 17.2135 7.57906 17.3404L5.84855 19.0709C5.5947 19.3247 5.18314 19.3247 4.92931 19.0708ZM12.0001 21.9996C11.6411 21.9996 11.3501 21.7086 11.3501 21.3496L11.3502 18.9023C11.3502 18.5433 11.6412 18.2523 12.0002 18.2523C12.3591 18.2523 12.6502 18.5433 12.6502 18.9023L12.6501 21.3496C12.6501 21.7086 12.3591 21.9996 12.0001 21.9996Z"/></svg>

<svg xmlns="http://www.w3.org/2000/svg" fill="none" viewBox="0 0 24 24" focusable="false"><path fill="#74767B" fill-rule="evenodd" d="M12 2c.35 0 .65.29.65.65v2.44c-.01.36-.3.65-.65.65-.36 0-.65-.29-.65-.65V2.65c0-.36.29-.65.65-.65M4.92 4.92c.26-.25.67-.25.92 0l1.73 1.73c.13.13.19.3.19.46 0 .17-.06.34-.19.46a.64.64 0 0 1-.92 0L4.92 5.84a.66.66 0 0 1-.19-.46c0-.16.07-.33.19-.46m14.15 0c.12.13.19.3.19.46 0 .17-.07.34-.19.46l-1.73 1.73a.64.64 0 0 1-.92 0 .62.62 0 0 1-.19-.46c0-.16.06-.33.19-.46l1.73-1.73c.25-.25.66-.25.92 0M17 12c0 2.76-2.24 5-5 5-2.77 0-5-2.24-5-5 0-2.77 2.23-5.01 5-5.01 2.76 0 5 2.24 5 5.01m-15-.01c0-.35.29-.65.65-.65h2.44c.36 0 .65.3.65.65 0 .36-.29.65-.65.65H2.65c-.36 0-.65-.29-.65-.65m19.99.01c0 .35-.29.65-.65.65l-2.44-.01c-.36 0-.65-.29-.65-.65 0-.35.29-.65.65-.65l2.44.01c.36 0 .65.29.65.65m-2.92 7.07c-.26.25-.67.25-.92 0l-1.73-1.73a.65.65 0 0 1-.19-.46c0-.17.06-.34.19-.46a.64.64 0 0 1 .92 0l1.73 1.73c.12.12.19.29.19.46 0 .16-.07.33-.19.46m-14.15 0a.7.7 0 0 1-.19-.46c0-.17.07-.34.19-.46l1.73-1.73a.64.64 0 0 1 .92 0c.13.12.19.29.19.46 0 .16-.06.33-.19.46l-1.73 1.73c-.25.25-.66.25-.92 0M12 21.99c-.36 0-.65-.29-.65-.65V18.9c0-.36.29-.65.65-.65.35 0 .65.29.65.65l-.01 2.44c0 .36-.29.65-.64.65"/></svg>
